SVG_Azure_Grouped/AI/Cognitive Services Content Moderator.svg

<?xml version="1.0" encoding="UTF-8" standalone="no"?>
<!-- Generated by Microsoft Visio, SVG Export Cognitive Services Content Moderator.svg Page-1 -->

<svg
   xmlns:dc="http://purl.org/dc/elements/1.1/"
   xmlns:cc="http://creativecommons.org/ns#"
   xmlns:rdf="http://www.w3.org/1999/02/22-rdf-syntax-ns#"
   xmlns:svg="http://www.w3.org/2000/svg"
   xmlns="http://www.w3.org/2000/svg"
   xmlns:sodipodi="http://sodipodi.sourceforge.net/DTD/sodipodi-0.dtd"
   xmlns:inkscape="http://www.inkscape.org/namespaces/inkscape"
   width="0.78736079in"
   height="0.74812186in"
   viewBox="0 0 56.689995 53.864811"
   xml:space="preserve"
   class="st6"
   version="1.1"
   id="svg50"
   sodipodi:docname="Cognitive Services Content Moderator.svg"
   style="font-size:12px;overflow:visible;color-interpolation-filters:sRGB;fill:none;fill-rule:evenodd;stroke-linecap:square;stroke-miterlimit:3"
   inkscape:version="0.92.5 (2060ec1f9f, 2020-04-08)"><metadata
   id="metadata54"><rdf:RDF><cc:Work
       rdf:about=""><dc:format>image/svg+xml</dc:format><dc:type
         rdf:resource="http://purl.org/dc/dcmitype/StillImage" /></cc:Work></rdf:RDF></metadata><sodipodi:namedview
   pagecolor="#ffffff"
   bordercolor="#666666"
   borderopacity="1"
   objecttolerance="10"
   gridtolerance="10"
   guidetolerance="10"
   inkscape:pageopacity="0"
   inkscape:pageshadow="2"
   inkscape:window-width="640"
   inkscape:window-height="480"
   id="namedview52"
   showgrid="false"
   inkscape:zoom="1.4686613"
   inkscape:cx="37.795067"
   inkscape:cy="34.993729"
   inkscape:window-x="0"
   inkscape:window-y="0"
   inkscape:window-maximized="0"
   inkscape:current-layer="svg50" />
	<style
   type="text/css"
   id="style2">
	<![CDATA[
		.st1 {fill:url(#grad0-6);stroke:none;stroke-linecap:butt;stroke-width:32.6442}
		.st2 {fill:url(#grad0-10);stroke:none;stroke-linecap:butt;stroke-width:32.6442}
		.st3 {fill:#ffffff;fill-opacity:0.3;stroke:none;stroke-linecap:butt;stroke-width:32.6442}
		.st4 {fill:#faa21d;stroke:none;stroke-linecap:butt;stroke-width:32.6442}
		.st5 {fill:#ffffff;stroke:none;stroke-linecap:butt;stroke-width:32.6442}
		.st6 {fill:none;fill-rule:evenodd;font-size:12px;overflow:visible;stroke-linecap:square;stroke-miterlimit:3}
	]]>
	</style>

	<defs
   id="Patterns_And_Gradients">
		<linearGradient
   id="grad0-6"
   x1="-2.5957558e-06"
   y1="98.605734"
   x2="46.941882"
   y2="98.605734"
   gradientTransform="scale(1.2076636,0.82804515)"
   gradientUnits="userSpaceOnUse">
			<stop
   offset="0"
   stop-color="#0078d4"
   stop-opacity="1"
   id="stop4" />
			<stop
   offset="0.815"
   stop-color="#5ea0ef"
   stop-opacity="1"
   id="stop6" />
		</linearGradient>
		<linearGradient
   id="grad0-10"
   x1="0"
   y1="145.06602"
   x2="20.621591"
   y2="145.06602"
   gradientTransform="scale(1.3747727,0.72739297)"
   gradientUnits="userSpaceOnUse">
			<stop
   offset="0.15"
   stop-color="#cccccc"
   stop-opacity="1"
   id="stop9" />
			<stop
   offset="1"
   stop-color="#707070"
   stop-opacity="1"
   id="stop11" />
		</linearGradient>
	</defs>
	<g
   id="g48"
   transform="translate(-32.644197,-32.6395)">
		<title
   id="title15">Page-1</title>
		<g
   id="group18654-1"
   transform="translate(32.6442,-34.0157)">
			<title
   id="title17">Cognitive Services Content Moderator.18654</title>
			<g
   id="group18655-2">
				<title
   id="title19">g12</title>
				<g
   id="shape18656-3"
   transform="translate(0,-14.9948)">
					<title
   id="title21">rect2</title>
					<path
   d="m 0,118.57 a 1.89296,1.94646 -180 0 0 1.89,1.95 H 54.8 a 1.89296,1.94646 -180 0 0 1.89,-1.95 V 83.6 A 1.89296,1.94646 -180 0 0 54.8,81.65 H 1.89 A 1.89296,1.94646 -180 0 0 0,83.6 Z"
   class="st1"
   id="path23"
   inkscape:connector-curvature="0"
   style="fill:url(#grad0-6);stroke:none;stroke-width:32.64419937;stroke-linecap:butt" />
				</g>
				<g
   id="shape18657-7"
   transform="translate(14.1827)">
					<title
   id="title26">path4</title>
					<path
   d="m 25.53,117.28 c -5.6,-0.9 -5.82,-5.06 -5.81,-11.76 H 8.6 c 0,6.7 -0.2,10.86 -5.81,11.76 A 3.29449,3.3876 -180 0 0 0,120.52 h 28.35 a 3.31339,3.40703 -180 0 0 -2.82,-3.24 z"
   class="st2"
   id="path28"
   inkscape:connector-curvature="0"
   style="fill:url(#grad0-10);stroke:none;stroke-width:32.64419937;stroke-linecap:butt" />
				</g>
				<g
   id="shape18658-11"
   transform="translate(4.66772,-20.63)">
					<title
   id="title31">path6</title>
					<path
   d="M 12.2,120.52 H 0.94 a 0.944882,0.971586 0 0 1 -0.944882,-0.97159 L 0,93.89 A 0.944882,0.971586 0 0 1 0.944882,92.918414 L 12.2,92.92 a 0.944882,0.971586 0 0 1 0.944882,0.971586 L 13.14,119.55 a 0.944882,0.971586 0 0 1 -0.944882,0.97159 z m 18.05,-0.97 V 93.89 A 0.944882,0.971586 -180 0 0 29.305118,92.918414 L 18.05,92.92 a 0.944882,0.971586 -180 0 0 -0.944882,0.971586 L 17.11,119.55 a 0.944882,0.971586 -180 0 0 0.944882,0.97159 L 29.3,120.52 a 0.944882,0.971586 -180 0 0 0.944882,-0.97159 z"
   class="st3"
   id="path33"
   inkscape:connector-curvature="0"
   style="fill:#ffffff;fill-opacity:0.3;stroke:none;stroke-width:32.64419937;stroke-linecap:butt" />
				</g>
				<g
   id="shape18659-13"
   transform="translate(38.885,-20.63)">
					<title
   id="title36">rect8</title>
					<path
   d="m 0,119.55 a 0.944904,0.971609 -180 0 0 0.944882,0.97159 L 12.2,120.52 a 0.944904,0.971609 -180 0 0 0.944882,-0.97159 L 13.14,93.89 A 0.944904,0.971609 -180 0 0 12.195118,92.918414 L 0.94,92.92 a 0.944904,0.971609 -180 0 0 -0.944882,0.971586 z"
   class="st4"
   id="path38"
   inkscape:connector-curvature="0"
   style="fill:#faa21d;stroke:none;stroke-width:32.64419937;stroke-linecap:butt" />
				</g>
				<g
   id="shape18660-15"
   transform="translate(6.58483,-19.9985)">
					<title
   id="title41">path10</title>
					<path
   d="m 40.03,110.15 h -2.3 a 0.519685,0.534372 0 0 1 -0.538583,-0.49227 L 36.95,98.89 a 0.513386,0.527895 0 0 1 0.538583,-0.514941 L 40.28,98.38 a 0.516535,0.531134 0 0 1 0.538583,0.514941 L 40.57,109.66 a 0.519685,0.534372 0 0 1 -0.538583,0.49227 z m -1.15,1.34 a 1.83622,1.88812 -180 1 0 1.84,1.88 1.83622,1.88812 -180 0 0 -1.85,-1.87 z m -12.8,-8.14 a 0.296063,0.30443 -180 0 0 -0.418898,0 L 20.3,108.86 18.27,106.77 a 0.296063,0.30443 -180 0 0 -0.418898,0 L 17.37,107.25 a 0.296063,0.30443 -180 0 0 0,0.43074 l 2.71,2.78926 a 0.314961,0.323862 -180 0 0 0.422047,0 L 26.55,104.25 a 0.296063,0.30443 -180 0 0 0,-0.43074 z m -17.33,0 a 0.296063,0.30443 -180 0 0 -0.418898,0 L 2.98,108.86 0.97,106.74 a 0.314961,0.323862 -180 0 0 -0.422047,0 L 0.08,107.22 a 0.314961,0.323862 -180 0 0 0,0.43074 L 2.79,110.44 H 2.8 a 0.296063,0.30443 -180 0 0 0.418898,0 L 9.23,104.25 a 0.296063,0.30443 -180 0 0 0,-0.43074 z m 35.74,17.17 H 33.25 a 1.54016,1.58369 0 0 1 -1.54,-1.58 V 93.26 a 1.54016,1.58369 0 0 1 1.54,-1.58 H 44.5 a 1.54016,1.58369 0 0 1 1.53,1.58 v 25.66 A 1.54016,1.58369 0 0 1 44.5,120.5 Z M 33.25,92.9 a 0.359055,0.369203 -180 0 0 -0.355906,0.365964 L 32.89,118.92 a 0.359055,0.369203 -180 0 0 0.355906,0.36596 L 44.5,119.28 a 0.359055,0.369203 -180 0 0 0.355906,-0.36596 L 44.85,93.26 a 0.359055,0.369203 -180 0 0 -0.355906,-0.365964 z"
   class="st5"
   id="path43"
   inkscape:connector-curvature="0"
   style="fill:#ffffff;stroke:none;stroke-width:32.64419937;stroke-linecap:butt" />
				</g>
			</g>
		</g>
	</g>
</svg>

<?xml version="1.0" encoding="UTF-8" standalone="no"?>
<!DOCTYPE svg PUBLIC "-//W3C//DTD SVG 1.1//EN" "http://www.w3.org/Graphics/SVG/1.1/DTD/svg11.dtd">
<!-- Generated by Microsoft Visio, SVG Export Cognitive Services Content Moderator.svg Page-1 -->
<svg xmlns="http://www.w3.org/2000/svg" xmlns:xlink="http://www.w3.org/1999/xlink" xmlns:ev="http://www.w3.org/2001/xml-events"
		width="1.69418in" height="1.67386in" viewBox="0 0 121.981 120.518" xml:space="preserve" color-interpolation-filters="sRGB"
		class="st6">
	<style type="text/css">
	<![CDATA[
		.st1 {fill:url(#grad0-6);stroke:none;stroke-linecap:butt;stroke-width:32.6442}
		.st2 {fill:url(#grad0-10);stroke:none;stroke-linecap:butt;stroke-width:32.6442}
		.st3 {fill:#ffffff;fill-opacity:0.3;stroke:none;stroke-linecap:butt;stroke-width:32.6442}
		.st4 {fill:#faa21d;stroke:none;stroke-linecap:butt;stroke-width:32.6442}
		.st5 {fill:#ffffff;stroke:none;stroke-linecap:butt;stroke-width:32.6442}
		.st6 {fill:none;fill-rule:evenodd;font-size:12px;overflow:visible;stroke-linecap:square;stroke-miterlimit:3}
	]]>
	</style>

	<defs id="Patterns_And_Gradients">
		<linearGradient id="grad0-6" x1="0" y1="0" x2="1" y2="0" gradientTransform="rotate(-90 0.5 0.5)">
			<stop offset="0" stop-color="#0078d4" stop-opacity="1"/>
			<stop offset="0.815" stop-color="#5ea0ef" stop-opacity="1"/>
		</linearGradient>
		<linearGradient id="grad0-10" x1="0" y1="0" x2="1" y2="0" gradientTransform="rotate(-90 0.5 0.5)">
			<stop offset="0.15" stop-color="#cccccc" stop-opacity="1"/>
			<stop offset="1" stop-color="#707070" stop-opacity="1"/>
		</linearGradient>
	</defs>
	<g>
		<title>Page-1</title>
		<g id="group18224-1" transform="translate(32.6442,-34.0157)">
			<title>Cognitive Services Content Moderator.18224</title>
			<g id="group18225-2">
				<title>g12</title>
				<g id="shape18226-3" transform="translate(0,-14.9948)">
					<title>rect2</title>
					<path d="M0 118.57 A1.89296 1.94646 -180 0 0 1.89 120.52 L54.8 120.52 A1.89296 1.94646 -180 0 0 56.69 118.57
								 L56.69 83.6 A1.89296 1.94646 -180 0 0 54.8 81.65 L1.89 81.65 A1.89296 1.94646 -180 0 0 0 83.6 L0
								 118.57 Z" class="st1"/>
				</g>
				<g id="shape18227-7" transform="translate(14.1827,0)">
					<title>path4</title>
					<path d="M25.53 117.28 C19.93 116.38 19.71 112.22 19.72 105.52 L8.6 105.52 C8.6 112.22 8.4 116.38 2.79 117.28
								 A3.29449 3.3876 -180 0 0 0 120.52 L28.35 120.52 A3.31339 3.40703 -180 0 0 25.53 117.28 Z"
							class="st2"/>
				</g>
				<g id="shape18228-11" transform="translate(4.66772,-20.63)">
					<title>path6</title>
					<path d="M12.2 120.52 L0.94 120.52 a0.944882 0.971586 0 0 1 -0.944882 -0.971586 L0 93.89 a0.944882 0.971586 0
								 0 1 0.944882 -0.971586 L12.2 92.92 a0.944882 0.971586 0 0 1 0.944882 0.971586 L13.14 119.55 a0.944882
								 0.971586 0 0 1 -0.944882 0.971586 ZM30.25 119.55 L30.25 93.89 a0.944882 0.971586 -180 0 0 -0.944882
								 -0.971586 L18.05 92.92 a0.944882 0.971586 -180 0 0 -0.944882 0.971586 L17.11 119.55 a0.944882 0.971586
								 -180 0 0 0.944882 0.971586 L29.3 120.52 a0.944882 0.971586 -180 0 0 0.944882 -0.971586 Z"
							class="st3"/>
				</g>
				<g id="shape18229-13" transform="translate(38.885,-20.63)">
					<title>rect8</title>
					<path d="M-0 119.55 a0.944904 0.971609 -180 0 0 0.944882 0.971586 L12.2 120.52 a0.944904 0.971609 -180 0 0 0.944882
								 -0.971586 L13.14 93.89 a0.944904 0.971609 -180 0 0 -0.944882 -0.971586 L0.94 92.92 a0.944904 0.971609
								 -180 0 0 -0.944882 0.971586 L0 119.55 Z" class="st4"/>
				</g>
				<g id="shape18230-15" transform="translate(6.58483,-19.9985)">
					<title>path10</title>
					<path d="M40.03 110.15 L37.73 110.15 a0.519685 0.534372 0 0 1 -0.538583 -0.49227 L36.95 98.89 a0.513386 0.527895
								 0 0 1 0.538583 -0.514941 L40.28 98.38 a0.516535 0.531134 0 0 1 0.538583 0.514941 L40.57 109.66 a0.519685
								 0.534372 0 0 1 -0.538583 0.49227 ZM38.88 111.49 A1.83622 1.88812 -180 1 0 40.72 113.37 A1.83622
								 1.88812 -180 0 0 38.87 111.5 L38.88 111.49 ZM26.08 103.35 a0.296063 0.30443 -180 0 0 -0.418898 -1.42109E-14
								 L20.3 108.86 L18.27 106.77 a0.296063 0.30443 -180 0 0 -0.418898 -1.42109E-14 L17.37 107.25 a0.296063
								 0.30443 -180 0 0 -7.81597E-14 0.430737 L20.08 110.47 a0.314961 0.323862 -180 0 0 0.422047 -2.84217E-14
								 L26.55 104.25 a0.296063 0.30443 -180 0 0 -5.68434E-14 -0.430737 L26.08 103.35 ZM8.75 103.35 a0.296063
								 0.30443 -180 0 0 -0.418898 -1.42109E-14 L2.98 108.86 L0.97 106.74 a0.314961 0.323862 -180 0 0 -0.422047
								 0 L0.08 107.22 a0.314961 0.323862 -180 0 0 8.32667E-17 0.430737 L2.79 110.44 L2.8 110.44 a0.296063
								 0.30443 -180 0 0 0.418898 0 L9.23 104.25 a0.296063 0.30443 -180 0 0 -5.68434E-14 -0.430737 L8.75
								 103.35 ZM44.49 120.52 L33.25 120.52 A1.54016 1.58369 0 0 1 31.71 118.94 L31.71 93.26 A1.54016 1.58369
								 0 0 1 33.25 91.68 L44.5 91.68 A1.54016 1.58369 0 0 1 46.03 93.26 L46.03 118.92 A1.54016 1.58369
								 0 0 1 44.5 120.5 L44.49 120.52 ZM33.25 92.9 a0.359055 0.369203 -180 0 0 -0.355906 0.365964 L32.89
								 118.92 a0.359055 0.369203 -180 0 0 0.355906 0.365964 L44.5 119.28 a0.359055 0.369203 -180 0 0 0.355906
								 -0.365964 L44.85 93.26 a0.359055 0.369203 -180 0 0 -0.355906 -0.365964 L33.25 92.9 Z" class="st5"/>
				</g>
			</g>
		</g>
	</g>
</svg>
